lib/svgs/remove-link.svg

<svg xmlns="http://www.w3.org/2000/svg" viewBox="0 0 20 20">
    <path fill="#000" fill-rule="evenodd" d="M8.23073593,14.2307359 C7.32505051,15.1364214 5.78494949,15.1364214 4.87926407,14.2307359 C3.97357864,13.3250505 3.97357864,11.7849495 4.87926407,10.8792641 L6.37926407,9.37926407 C6.61357864,9.14494949 6.61357864,8.76505051 6.37926407,8.53073593 C6.14494949,8.29642136 5.76505051,8.29642136 5.53073593,8.53073593 L4.03073593,10.0307359 C2.65642136,11.4050505 2.65642136,13.7049495 4.03073593,15.0792641 C5.40505051,16.4535786 7.70494949,16.4535786 9.07926407,15.0792641 L10.5792641,13.5792641 C10.8135786,13.3449495 10.8135786,12.9650505 10.5792641,12.7307359 C10.3449495,12.4964214 9.96505051,12.4964214 9.73073593,12.7307359 L8.23073593,14.2307359 Z M9.37926407,6.37926407 L10.8792641,4.87926407 C11.7849495,3.97357864 13.3250505,3.97357864 14.2307359,4.87926407 C15.1364214,5.78494949 15.1364214,7.32505051 14.2307359,8.23073593 L12.7307359,9.73073593 C12.4964214,9.96505051 12.4964214,10.3449495 12.7307359,10.5792641 C12.9650505,10.8135786 13.3449495,10.8135786 13.5792641,10.5792641 L15.0792641,9.07926407 C16.4535786,7.70494949 16.4535786,5.40505051 15.0792641,4.03073593 C13.7049495,2.65642136 11.4050505,2.65642136 10.0307359,4.03073593 L8.53073593,5.53073593 C8.29642136,5.76505051 8.29642136,6.14494949 8.53073593,6.37926407 C8.76505051,6.61357864 9.14494949,6.61357864 9.37926407,6.37926407 L9.37926407,6.37926407 Z M8.17926407,11.7792641 L11.7792641,8.17926407 C12.0135786,7.94494949 12.0135786,7.56505051 11.7792641,7.33073593 C11.5449495,7.09642136 11.1650505,7.09642136 10.9307359,7.33073593 L7.33073593,10.9307359 C7.09642136,11.1650505 7.09642136,11.5449495 7.33073593,11.7792641 C7.56505051,12.0135786 7.94494949,12.0135786 8.17926407,11.7792641 L8.17926407,11.7792641 Z M11.7782486,13.5203611 C11.7296887,13.5405063 11.6983248,13.6105372 11.7042323,13.6501823 L12.0001213,15.6358854 C12.0078032,15.6874384 12.0620001,15.7103632 12.1016311,15.6947757 L13.042811,15.3245944 C13.0911914,15.3055656 13.1016828,15.2444441 13.0804732,15.2107083 L12.0181496,13.520986 C11.9905694,13.4771173 11.9247913,13.4595675 11.8802857,13.4780308 L11.7782486,13.5203611 L11.7782486,13.5203611 Z M13.099232,12.2789101 C13.0774213,12.3267618 13.1022808,12.3993685 13.1336872,12.4243334 L14.7067389,13.6747469 C14.7475786,13.7072103 14.8029368,13.6870127 14.82132,13.6485839 L15.2578942,12.7359551 C15.2803359,12.6890423 15.2462726,12.6371866 15.2076936,12.6269798 L13.2753882,12.1157501 C13.2252215,12.1024775 13.1650513,12.1345047 13.1450617,12.1783612 L13.099232,12.2789101 L13.099232,12.2789101 Z M5.53161277,6.8058583 C5.55003229,6.75660172 5.5201686,6.68590595 5.48709723,6.66319271 L3.83065299,5.52555564 C3.78764822,5.49602019 3.73383378,5.52003015 3.71817602,5.55964771 L3.34632707,6.50050728 C3.32721253,6.54887126 3.36481011,6.59822447 3.40400714,6.60571531 L5.36726706,6.98090881 C5.41823742,6.99064962 5.47602694,6.95450318 5.49290856,6.90935918 L5.53161277,6.8058583 L5.53161277,6.8058583 Z M7.17114977,5.7205915 C7.22040848,5.70217767 7.25417091,5.63325866 7.24961604,5.59339815 L7.02147643,3.59690674 C7.01555345,3.54507363 6.96212746,3.5202113 6.9219553,3.5343857 L5.9679247,3.87100715 C5.91888368,3.88831085 5.90630256,3.94906472 5.92636472,3.98356153 L6.93121699,5.71140168 C6.95730507,5.75626005 7.02249847,5.77616015 7.06764442,5.75928375 L7.17114977,5.7205915 L7.17114977,5.7205915 Z"/>
</svg>

<svg xmlns="http://www.w3.org/2000/svg" viewBox="0 0 20 20">
    <path fill="#000" fill-rule="evenodd" d="M8.23 14.23a2.407 2.407 0 0 1-3.35 0 2.407 2.407 0 0 1 0-3.35l1.5-1.5a.6.6 0 0 0-.85-.85l-1.5 1.5a3.606 3.606 0 0 0 0 5.05 3.606 3.606 0 0 0 5.05 0l1.5-1.5a.6.6 0 0 0-.85-.85m-.35-6.35l1.5-1.5a2.407 2.407 0 0 1 3.35 0 2.407 2.407 0 0 1 0 3.35l-1.5 1.5a.6.6 0 0 0 .85.85l1.5-1.5a3.606 3.606 0 0 0 0-5.05 3.606 3.606 0 0 0-5.05 0l-1.5 1.5a.6.6 0 0 0 .85.85m-1.2 5.4l3.6-3.6a.6.6 0 0 0-.85-.85l-3.6 3.6a.6.6 0 0 0 .85.85m3.598 1.74c-.048.02-.08.09-.074.13L12 15.636a.076.076 0 0 0 .102.059l.94-.37c.05-.02.06-.08.038-.114l-1.062-1.69a.12.12 0 0 0-.138-.043l-.102.042M13.1 12.28c-.022.048.003.12.035.145l1.573 1.25c.04.033.096.013.114-.025l.437-.913c.022-.047-.012-.099-.05-.109l-1.933-.511a.12.12 0 0 0-.13.062l-.046.1M5.532 6.807c.018-.05-.012-.12-.045-.143L3.831 5.526a.076.076 0 0 0-.113.034l-.372.94c-.019.049.019.098.058.106l1.963.375a.12.12 0 0 0 .126-.072l.039-.103m1.64-1.085c.048-.019.082-.088.078-.128L7.02 3.597a.076.076 0 0 0-.099-.063l-.954.337c-.05.017-.062.078-.042.113L6.931 5.71a.12.12 0 0 0 .137.048l.103-.038"/>
</svg>
